content/linear-algebra/images/vecscale.svg

<svg height="113.39pt" viewBox="0 0 113.39 113.39" width="113.39pt" xmlns="http://www.w3.org/2000/svg" xmlns:xlink="http://www.w3.org/1999/xlink"><clipPath id="a"><path d="m105 109h8.390625v4.390625h-8.390625zm0 0"/></clipPath><clipPath id="b"><path d="m105 108h8.390625v5.390625h-8.390625zm0 0"/></clipPath><g transform="matrix(.1 0 0 -.1 0 113.39)"><path d="m274.570312 22.610938v1007.929687" style="fill:none;stroke-width:5;stroke-linecap:round;stroke-linejoin:round;stroke:#7f7f7f;stroke-miterlimit:10"/><path d="m22.617188 274.603125h1007.929687" style="fill:none;stroke-width:5;stroke-linecap:round;stroke-linejoin:round;stroke:#7f7f7f;stroke-miterlimit:10"/><path d="m526.5625 22.610938v1007.929687" style="fill:none;stroke-width:5;stroke-linecap:round;stroke-linejoin:round;stroke:#7f7f7f;stroke-miterlimit:10"/><path d="m22.617188 526.595313h1007.929687" style="fill:none;stroke-width:5;stroke-linecap:round;stroke-linejoin:round;stroke:#7f7f7f;stroke-miterlimit:10"/><path d="m778.554688 22.610938v1007.929687" style="fill:none;stroke-width:5;stroke-linecap:round;stroke-linejoin:round;stroke:#7f7f7f;stroke-miterlimit:10"/><path d="m22.617188 778.5875h1007.929687" style="fill:none;stroke-width:5;stroke-linecap:round;stroke-linejoin:round;stroke:#7f7f7f;stroke-miterlimit:10"/><path d="m1030.546875 22.610938v1007.929687" style="fill:none;stroke-width:5;stroke-linecap:round;stroke-linejoin:round;stroke:#7f7f7f;stroke-miterlimit:10"/><path d="m22.617188 1030.540625h1007.929687" style="fill:none;stroke-width:5;stroke-linecap:round;stroke-linejoin:round;stroke:#7f7f7f;stroke-miterlimit:10"/><path d="m1056.367188 22.610938h-1033.75v1033.75" style="fill:none;stroke-width:5;stroke-linecap:round;stroke-linejoin:round;stroke:#000;stroke-miterlimit:10"/></g><g clip-path="url(#a)"><path d="m113.136719 111.128906-7.5-2.007812v4.019531zm0 0"/></g><g clip-path="url(#b)"><path d="m1131.367188 22.610938-75 20.078125v-40.195313zm0 0" style="fill:none;stroke-width:5;stroke-linecap:round;stroke-linejoin:round;stroke:#000;stroke-miterlimit:10" transform="matrix(.1 0 0 -.1 0 113.39)"/></g><path d="m22.617188 1131.360938-20.117188-75h40.195312zm0 0" stroke="#000" stroke-linecap="round" stroke-linejoin="round" stroke-miterlimit="10" stroke-width="5" transform="matrix(.1 0 0 -.1 0 113.39)"/><path d="m22.617188 22.610938 957.539062 478.75" style="fill:none;stroke-width:25;stroke-linecap:round;stroke-linejoin:round;stroke:#191970;stroke-miterlimit:10" transform="matrix(.1 0 0 -.1 0 113.39)"/><path d="m963.476562 493.040625-940.859374-470.429687" style="fill:none;stroke-width:5;stroke-linecap:round;stroke-linejoin:round;stroke:#191970;stroke-miterlimit:10" transform="matrix(.1 0 0 -.1 0 113.39)"/><path d="m1030.546875 526.595313-76.054687-15.585938 17.96875-35.9375zm0 0" style="fill:#191970;stroke-width:5;stroke-linecap:round;stroke-linejoin:round;stroke:#191970;stroke-miterlimit:10" transform="matrix(.1 0 0 -.1 0 113.39)"/><path d="m459.492188 241.048438-436.875-218.4375" style="fill:none;stroke-width:5;stroke-linecap:round;stroke-linejoin:round;stroke:#ff8c00;stroke-miterlimit:10" transform="matrix(.1 0 0 -.1 0 113.39)"/><path d="m526.5625 274.603125-76.054688-15.585937 17.96875-35.9375zm0 0" style="fill:#ff8c00;stroke-width:5;stroke-linecap:round;stroke-linejoin:round;stroke:#ff8c00;stroke-miterlimit:10" transform="matrix(.1 0 0 -.1 0 113.39)"/><path d="m22.617188 22.610938 468.671874 234.335937" style="fill:none;stroke-width:12.5;stroke-linecap:round;stroke-linejoin:round;stroke:#ff8c00;stroke-miterlimit:10" transform="matrix(.1 0 0 -.1 0 113.39)"/></svg>

<?xml version="1.0" encoding="UTF-8"?>
<svg xmlns="http://www.w3.org/2000/svg" xmlns:xlink="http://www.w3.org/1999/xlink" width="113.39pt" height="113.39pt" viewBox="0 0 113.39 113.39" version="1.1">
<defs>
<clipPath id="clip1">
  <path d="M 105 109 L 113.390625 109 L 113.390625 113.390625 L 105 113.390625 Z M 105 109 "/>
</clipPath>
<clipPath id="clip2">
  <path d="M 105 108 L 113.390625 108 L 113.390625 113.390625 L 105 113.390625 Z M 105 108 "/>
</clipPath>
</defs>
<g id="surface1">
<path style="fill:none;stroke-width:5;stroke-linecap:round;stroke-linejoin:round;stroke:rgb(50%,50%,50%);stroke-opacity:1;stroke-miterlimit:10;" d="M 274.570312 22.610938 L 274.570312 1030.540625 " transform="matrix(0.1,0,0,-0.1,0,113.39)"/>
<path style="fill:none;stroke-width:5;stroke-linecap:round;stroke-linejoin:round;stroke:rgb(50%,50%,50%);stroke-opacity:1;stroke-miterlimit:10;" d="M 22.617188 274.603125 L 1030.546875 274.603125 " transform="matrix(0.1,0,0,-0.1,0,113.39)"/>
<path style="fill:none;stroke-width:5;stroke-linecap:round;stroke-linejoin:round;stroke:rgb(50%,50%,50%);stroke-opacity:1;stroke-miterlimit:10;" d="M 526.5625 22.610938 L 526.5625 1030.540625 " transform="matrix(0.1,0,0,-0.1,0,113.39)"/>
<path style="fill:none;stroke-width:5;stroke-linecap:round;stroke-linejoin:round;stroke:rgb(50%,50%,50%);stroke-opacity:1;stroke-miterlimit:10;" d="M 22.617188 526.595313 L 1030.546875 526.595313 " transform="matrix(0.1,0,0,-0.1,0,113.39)"/>
<path style="fill:none;stroke-width:5;stroke-linecap:round;stroke-linejoin:round;stroke:rgb(50%,50%,50%);stroke-opacity:1;stroke-miterlimit:10;" d="M 778.554688 22.610938 L 778.554688 1030.540625 " transform="matrix(0.1,0,0,-0.1,0,113.39)"/>
<path style="fill:none;stroke-width:5;stroke-linecap:round;stroke-linejoin:round;stroke:rgb(50%,50%,50%);stroke-opacity:1;stroke-miterlimit:10;" d="M 22.617188 778.5875 L 1030.546875 778.5875 " transform="matrix(0.1,0,0,-0.1,0,113.39)"/>
<path style="fill:none;stroke-width:5;stroke-linecap:round;stroke-linejoin:round;stroke:rgb(50%,50%,50%);stroke-opacity:1;stroke-miterlimit:10;" d="M 1030.546875 22.610938 L 1030.546875 1030.540625 " transform="matrix(0.1,0,0,-0.1,0,113.39)"/>
<path style="fill:none;stroke-width:5;stroke-linecap:round;stroke-linejoin:round;stroke:rgb(50%,50%,50%);stroke-opacity:1;stroke-miterlimit:10;" d="M 22.617188 1030.540625 L 1030.546875 1030.540625 " transform="matrix(0.1,0,0,-0.1,0,113.39)"/>
<path style="fill:none;stroke-width:5;stroke-linecap:round;stroke-linejoin:round;stroke:rgb(0%,0%,0%);stroke-opacity:1;stroke-miterlimit:10;" d="M 1056.367188 22.610938 L 22.617188 22.610938 L 22.617188 1056.360938 " transform="matrix(0.1,0,0,-0.1,0,113.39)"/>
<g clip-path="url(#clip1)" clip-rule="nonzero">
<path style=" stroke:none;fill-rule:nonzero;fill:rgb(0%,0%,0%);fill-opacity:1;" d="M 113.136719 111.128906 L 105.636719 109.121094 L 105.636719 113.140625 Z M 113.136719 111.128906 "/>
</g>
<g clip-path="url(#clip2)" clip-rule="nonzero">
<path style="fill:none;stroke-width:5;stroke-linecap:round;stroke-linejoin:round;stroke:rgb(0%,0%,0%);stroke-opacity:1;stroke-miterlimit:10;" d="M 1131.367188 22.610938 L 1056.367188 42.689063 L 1056.367188 2.49375 Z M 1131.367188 22.610938 " transform="matrix(0.1,0,0,-0.1,0,113.39)"/>
</g>
<path style="fill-rule:nonzero;fill:rgb(0%,0%,0%);fill-opacity:1;stroke-width:5;stroke-linecap:round;stroke-linejoin:round;stroke:rgb(0%,0%,0%);stroke-opacity:1;stroke-miterlimit:10;" d="M 22.617188 1131.360938 L 2.5 1056.360938 L 42.695312 1056.360938 Z M 22.617188 1131.360938 " transform="matrix(0.1,0,0,-0.1,0,113.39)"/>
<path style="fill:none;stroke-width:25;stroke-linecap:round;stroke-linejoin:round;stroke:rgb(9.812927%,9.812927%,43.920898%);stroke-opacity:1;stroke-miterlimit:10;" d="M 22.617188 22.610938 L 980.15625 501.360938 " transform="matrix(0.1,0,0,-0.1,0,113.39)"/>
<path style="fill:none;stroke-width:5;stroke-linecap:round;stroke-linejoin:round;stroke:rgb(9.812927%,9.812927%,43.920898%);stroke-opacity:1;stroke-miterlimit:10;" d="M 963.476562 493.040625 L 22.617188 22.610938 " transform="matrix(0.1,0,0,-0.1,0,113.39)"/>
<path style="fill-rule:nonzero;fill:rgb(9.812927%,9.812927%,43.920898%);fill-opacity:1;stroke-width:5;stroke-linecap:round;stroke-linejoin:round;stroke:rgb(9.812927%,9.812927%,43.920898%);stroke-opacity:1;stroke-miterlimit:10;" d="M 1030.546875 526.595313 L 954.492188 511.009375 L 972.460938 475.071875 Z M 1030.546875 526.595313 " transform="matrix(0.1,0,0,-0.1,0,113.39)"/>
<path style="fill:none;stroke-width:5;stroke-linecap:round;stroke-linejoin:round;stroke:rgb(100%,54.881287%,0%);stroke-opacity:1;stroke-miterlimit:10;" d="M 459.492188 241.048438 L 22.617188 22.610938 " transform="matrix(0.1,0,0,-0.1,0,113.39)"/>
<path style="fill-rule:nonzero;fill:rgb(100%,54.881287%,0%);fill-opacity:1;stroke-width:5;stroke-linecap:round;stroke-linejoin:round;stroke:rgb(100%,54.881287%,0%);stroke-opacity:1;stroke-miterlimit:10;" d="M 526.5625 274.603125 L 450.507812 259.017188 L 468.476562 223.079688 Z M 526.5625 274.603125 " transform="matrix(0.1,0,0,-0.1,0,113.39)"/>
<path style="fill:none;stroke-width:12.5;stroke-linecap:round;stroke-linejoin:round;stroke:rgb(100%,54.881287%,0%);stroke-opacity:1;stroke-miterlimit:10;" d="M 22.617188 22.610938 L 491.289062 256.946875 " transform="matrix(0.1,0,0,-0.1,0,113.39)"/>
</g>
</svg>
